libs/icons/src/svg/newsletter.svg

<svg width="16" height="16" viewBox="0 0 16 16" fill="none" xmlns="http://www.w3.org/2000/svg">
<g clip-path="url(#clip0_4_500)">
<path fill-rule="evenodd" clip-rule="evenodd" d="M13.3333 0H2.66667V5.0599L0 6.99324V16H16V6.99324L13.3333 5.0599V0ZM12 8.3921L8 10.5739L4 8.3921V1.33333H12V8.3921ZM14.6667 8.45634L9.39222 11.3333L14.6667 14.2103V8.45634ZM1.33333 14.6667V8.45634L12.719 14.6667H1.33333ZM5.33333 3.33333H10.6667V4.66667H5.33333V3.33333ZM10.6667 6H5.33333V7.33333H10.6667V6Z" fill="#202327"/>
</g>
<defs>
<clipPath id="clip0_4_500">
<rect width="16" height="16" fill="white"/>
</clipPath>
</defs>
</svg>

<svg xmlns="http://www.w3.org/2000/svg" viewBox="0 0 16 16" class="sageicon"><path fill-rule="evenodd" d="M13.333 0H2.667v5.06L0 6.993V16h16V6.993L13.333 5.06V0ZM12 8.392l-4 2.182-4-2.182V1.333h8v7.06Zm2.667.064-5.275 2.877 5.275 2.877V8.456Zm-13.334 6.21v-6.21l11.386 6.21H1.333Zm4-11.333h5.334v1.334H5.333V3.333ZM10.667 6H5.333v1.333h5.334V6Z"/></svg>
